picto/do-not-lean-out-of-the-window.svg

<svg class="color-immutable" width="24" height="24" viewBox="0 0 24 24" fill="none" xmlns="http://www.w3.org/2000/svg"><path d="M0 22.5V1.5C0 0.675 0.675 0 1.5 0H22.5C23.325 0 24 0.675 24 1.5V22.5C24 23.325 23.325 24 22.5 24H1.5C0.675 24 0 23.325 0 22.5Z" fill="#2D327D"/><path d="M15.035 6.71C15.035 7.481 14.41 8.106 13.639 8.106C12.868 8.106 12.243 7.481 12.243 6.71C12.243 5.939 12.868 5.315 13.639 5.315C14.41 5.314 15.035 5.939 15.035 6.71Z" fill="white"/><path d="M16.568 12.15L15.59 11.172H14.05L15.766 12.888C15.862 13.008 16.008 13.085 16.173 13.085C16.463 13.085 16.725 12.823 16.725 12.533C16.725 12.384 16.662 12.25 16.562 12.154L16.568 12.15Z" fill="white"/><path d="M9.29204 14.945H8.66504V15.58H9.29204V14.945Z" fill="white"/><path d="M21.05 19.973L16.657 15.58H20.181C20.595 15.58 20.932 15.236 20.932 14.813V3.713C20.932 3.29 20.595 2.946 20.181 2.946H4.02201L3.70801 2.631L2.64801 3.692L2.95501 3.999V14.813C2.95501 15.236 3.29201 15.58 3.70601 15.58H6.78501V14.945H3.70501C3.64101 14.945 3.58901 14.886 3.58901 14.812V10.987H7.19801L7.57601 10.612H3.58901V4.634L8.72501 9.77C7.94301 10.552 7.15101 11.344 7.11201 11.383C7.03401 11.461 6.97401 11.565 6.97401 11.684C6.97401 11.803 6.97401 20.299 6.97401 20.299C6.97401 20.714 7.31001 21.049 7.72401 21.049C8.13801 21.049 8.47401 20.714 8.47401 20.299V13.312L9.48101 14.311V17.832C9.48101 18.247 9.81701 18.582 10.231 18.582C10.645 18.582 10.981 18.247 10.981 17.832L10.979 14.044C10.979 14.044 11.008 13.8 10.838 13.63L9.68001 12.478L10.542 11.587L13.9 14.945H11.17C11.17 15.141 11.17 15.357 11.17 15.58H11.19H14.534L19.988 21.034L21.05 19.973ZM12.525 8.106L12.518 8.113C12.264 7.867 11.878 7.709 11.445 7.709C10.954 7.709 10.524 7.912 10.277 8.217C10.277 8.217 10.08 8.414 9.78501 8.709L4.65701 3.58H20.181C20.245 3.58 20.297 3.64 20.297 3.712V10.613H11.82L11.755 10.678L11.585 10.508L12.47 9.592L13.296 10.418H14.836L12.525 8.106ZM12.065 10.988H20.297V14.813C20.297 14.886 20.245 14.946 20.181 14.946H16.022L12.065 10.988Z" fill="white"/><path d="M3.70801 2.631L2.64801 3.692L19.99 21.034L21.05 19.973L3.70801 2.631Z" fill="#EB0000"/></svg>

<svg class="color-immutable" width="24" height="24" viewBox="0 0 24 24" fill="none" xmlns="http://www.w3.org/2000/svg"><g clip-path="url(#a)"><path d="M0 22.5v-21C0 .675.675 0 1.5 0h21c.825 0 1.5.675 1.5 1.5v21c0 .825-.675 1.5-1.5 1.5h-21C.675 24 0 23.325 0 22.5Z" fill="#2D327D"/><path d="M15.035 6.71a1.396 1.396 0 1 1-2.792 0 1.396 1.396 0 0 1 2.792 0ZM16.568 12.15l-.978-.978h-1.54l1.716 1.716a.52.52 0 0 0 .407.197c.29 0 .552-.262.552-.552a.524.524 0 0 0-.163-.379l.006-.004ZM9.292 14.945h-.627v.635h.627v-.635Z" fill="#fff"/><path d="m21.05 19.973-4.393-4.393h3.524a.76.76 0 0 0 .751-.767v-11.1a.76.76 0 0 0-.751-.767H4.022l-.314-.315-1.06 1.061.307.307v10.814a.76.76 0 0 0 .751.767h3.079v-.635h-3.08c-.064 0-.116-.059-.116-.133v-3.825h3.609l.378-.375H3.589V4.634L8.725 9.77l-1.613 1.613a.432.432 0 0 0-.138.301v8.615a.75.75 0 1 0 1.5 0v-6.987l1.007.999v3.521a.75.75 0 1 0 1.5 0l-.002-3.788s.029-.244-.141-.414L9.68 12.478l.862-.891 3.358 3.358h-2.73v.635h3.364l5.454 5.454 1.062-1.061ZM12.525 8.106l-.007.007c-.254-.246-.64-.404-1.073-.404-.491 0-.921.203-1.168.508l-.492.492L4.657 3.58h15.524c.064 0 .116.06.116.132v6.901H11.82l-.065.065-.17-.17.885-.916.826.826h1.54l-2.311-2.312Zm-.46 2.882h8.232v3.825c0 .073-.052.133-.116.133h-4.159l-3.957-3.958Z" fill="#fff"/><path d="m3.708 2.631-1.06 1.061L19.99 21.034l1.06-1.061L3.708 2.631Z" fill="#EB0000"/></g><defs><clipPath id="a"><path fill="#fff" d="M0 0h24v24H0z"/></clipPath></defs></svg>
